X: 2
T: BONNIE TAMMIE SCOLLA
S: Brenda Robertson, Burravoe
B: Haand me doon da fiddle, 1979
Z: 2012 John Chambers <jc:trillian.mit.edu>
M: C
L: 1/4
K: A
[|\
A>B ce | fe c2 | BABc | BABc | A>B ce |
fe c2 | e>c Bc | A2 A2 || a>g fe | fe c2 |
BA Bc BA Bc | a>g fe | fe c2 | e>c Bc | A2 A2 |]
%%begintext align
Dis t\"un wis \"osed fir a sang.  Da auld fiddlers had different names
fir him:  "Da Auld Mare's Gaen ta Snaraness", "I Canna Get me Mare
Tamed", "Tame Her When da Snaa Comes", and dey played him in da key
o' G as weel as A.  Dis is a fine aisy wye o' him as it only \"oses
da first twa strings o' da fiddle.
%%endtext

%%sep 2 1 500
%%sep 1 1 500

